journy/img/journy-logo.svg

<svg fill="none" height="34" viewBox="0 0 76 34" width="76" xmlns="http://www.w3.org/2000/svg"><g clip-rule="evenodd" fill="#fff" fill-rule="evenodd"><path d="m4.53979 29.0335c0 .6313-.04653 1.2009-.13877 1.7098-.09264.5084-.26481.9469-.51702 1.3152-.25221.3682-.59276.6531-1.02145.8549-.42879.2014-.97973.3025-1.65202.3025-.40358 0-.807055-.0789-1.21053-.2368l.227-1.3941c.353053.1401.672287.2104.95842.2104.40358 0 .72712-.0748.97102-.2236.2435-.1492.42879-.3419.55485-.5787.12605-.2367.21009-.5129.25221-.8285.04181-.3157.06302-.649.06302-.9996v-14.4149h1.51327z"/><path d="m9.43262 20.8264c0-.9292.15136-1.7841.454-2.5646.30258-.7801.72268-1.4554 1.26108-2.0255.5379-.5696 1.1853-1.0127 1.942-1.3284.7566-.3156 1.5802-.4735 2.4717-.4735.891 0 1.7106.1579 2.4591.4735.7479.3157 1.3954.7588 1.942 1.3284.5463.5701.9711 1.2454 1.2737 2.0255.3026.7805.454 1.6354.454 2.5646 0 .9297-.1514 1.7846-.454 2.5647-.3026.7805-.7274 1.4558-1.2737 2.0255-.5465.57-1.194 1.0127-1.942 1.3284-.7485.3156-1.5681.4734-2.4591.4734-.8914 0-1.7151-.1578-2.4717-.4734-.7566-.3157-1.4041-.7584-1.942-1.3284-.5384-.5697-.9585-1.245-1.26108-2.0255-.30264-.7802-.454-1.6351-.454-2.5647zm1.51328 0c0 .684.1047 1.3284.3152 1.9334.21.605.517 1.1311.9205 1.5783.4036.4472.891.8023 1.4629 1.0653.5714.2631 1.2106.3946 1.9168.3946s1.345-.1315 1.9168-.3946c.5715-.263 1.0593-.6181 1.4629-1.0653s.7101-.9733.9206-1.5783c.21-.605.3152-1.2494.3152-1.9334 0-.6839-.1052-1.3283-.3152-1.9333-.2105-.605-.517-1.1311-.9206-1.5783s-.8914-.8023-1.4629-1.0653c-.5718-.2631-1.2105-.3946-1.9168-.3946-.7062 0-1.3454.1315-1.9168.3946-.5719.263-1.0593.6181-1.4629 1.0653s-.7105.9733-.9205 1.5783c-.2104.605-.3152 1.2494-.3152 1.9333z"/><path d="m36.1917 23.4832c0 .2281.0083.5043.0252.8286.0165.3247.0291.6535.0378.9864.0083.3334.0209.6445.0378.9338.0165.2894.0252.513.0252.6708h-1.5132c-.017-.4558-.0297-.8944-.0379-1.3152-.0086-.4209-.0296-.6926-.063-.8155h-.0756c-.3026.6667-.8071 1.2409-1.5133 1.723s-1.5302.7234-2.4717.7234c-.908 0-1.652-.1492-2.232-.4472-.5801-.298-1.0341-.688-1.3619-1.1706-.328-.4821-.551-1.039-.6684-1.6703-.1179-.6313-.1766-1.2799-.1766-1.9465v-7.2338h1.5133v7.1548c0 .4912.0418.9692.126 1.4336.084.4649.2309.8812.4414 1.2495.2101.3683.5044.6621.8828.8812.3783.2195.8701.3288 1.4754.3288.5549 0 1.0802-.1007 1.5763-.3025.4957-.2014.9245-.5084 1.2863-.9206.3614-.4119.6471-.9293.8576-1.552.21-.6223.3152-1.3547.3152-2.1964v-6.0764h1.5133z"/><path d="m41.6143 18.1697c0-.2277-.0087-.5039-.0252-.8286-.017-.3243-.0296-.6531-.0378-.9864-.0087-.3329-.0213-.6445-.0378-.9338-.017-.2894-.0252-.513-.0252-.6708h1.5132c.0165.4562.0291.8944.0379 1.3152.0083.4209.0291.693.063.8155.3865-.7189.8827-1.3062 1.488-1.7624.6054-.4558 1.345-.684 2.2195-.684.1514 0 .2983.0132.4414.0395.1428.0263.29.0571.4414.0921l-.1766 1.5519c-.2018-.0698-.3952-.1052-.58-.1052-.6557 0-1.2233.1098-1.7024.3288-.4793.2195-.8745.522-1.1854.9075-.3112.386-.5422.8377-.6936 1.3547-.1514.5175-.227 1.0744-.227 1.6703v6.6288h-1.5133v-8.7331z"/><path d="m51.2735 18.1697c0-.2277-.0087-.5039-.0252-.8286-.017-.3243-.0296-.6531-.0378-.9864-.0087-.3329-.0213-.6445-.0378-.9338-.017-.2894-.0252-.513-.0252-.6708h1.5132c.0165.4562.0291.8944.0378 1.3152.0083.4209.0291.693.0631.8155h.0756c.3026-.6663.8071-1.2404 1.5133-1.723.7063-.4821 1.5298-.7234 2.4716-.7234.9079 0 1.6477.1492 2.2195.4472.5714.2984 1.0215.6885 1.3493 1.1706.3278.4825.5548 1.039.681 1.6703s.1892 1.2803.1892 1.9465v7.2338h-1.5133v-7.1548c0-.4908-.0421-.9688-.126-1.4336-.0844-.4645-.2313-.8812-.4414-1.2495-.2105-.3683-.5044-.6617-.8827-.8812-.3784-.2191-.8702-.3288-1.4755-.3288-.5548 0-1.0805.1011-1.5762.3025-.4963.2018-.925.5088-1.2864.9206-.3617.4123-.6474.9298-.8575 1.552-.2105.6227-.3152 1.3547-.3152 2.1964v6.0764h-1.5133v-8.7331z"/><path d="m69.8361 30.6643c-.286.7892-.681 1.4114-1.1853 1.8677-.5044.4558-1.177.6839-2.0177.6839-.2522 0-.5045-.0222-.7567-.0658-.2522-.044-.4961-.1011-.7314-.171l.1513-1.473c.2184.0698.4414.1356.6683.1973.227.0612.458.092.6937.092.2687 0 .5084-.0616.7189-.1841.21-.1229.3908-.2807.5422-.4735.1514-.1932.2813-.4077.3909-.6444.1091-.2368.2056-.478.29-.7234l1.0592-2.8146-4.7415-12.2053h1.6898l3.8588 10.2325 3.7579-10.2325h1.6141z"/><path d="m4.33197.0953275c-.18559-.0566073-.4541-.0953275-.63426-.0953275-.22977 0-.43555.0427185-.59553.0953275-1.33474.4183465-2.03541 1.4505325-2.32093 2.6166625v.64004c.77744 2.77923 1.91766 5.20145 2.93583 7.73357.97133-2.4814 2.24765-4.95402 2.95263-7.72473v-.64888c-.25487-1.14687-1.00966-2.226619-2.33774-2.6166625zm-.63426 4.3706525c-.71697 0-1.29815-.59669-1.29815-1.3328 0-.7361.58118-1.3328 1.29815-1.3328s1.29815.5967 1.29815 1.3328c0 .73611-.58118 1.3328-1.29815 1.3328z"/></g></svg>

<svg width="76" height="34" viewBox="0 0 76 34" fill="none" xmlns="http://www.w3.org/2000/svg">
<path fill-rule="evenodd" clip-rule="evenodd" d="M4.53979 29.0335C4.53979 29.6648 4.49326 30.2344 4.40102 30.7433C4.30838 31.2517 4.13621 31.6902 3.884 32.0585C3.63179 32.4267 3.29124 32.7116 2.86255 32.9134C2.43376 33.1148 1.88282 33.2159 1.21053 33.2159C0.80695 33.2159 0.403475 33.137 0 32.9791L0.227 31.585C0.580053 31.7251 0.899287 31.7954 1.18542 31.7954C1.589 31.7954 1.91254 31.7206 2.15644 31.5718C2.39994 31.4226 2.58523 31.2299 2.71129 30.9931C2.83734 30.7564 2.92138 30.4802 2.9635 30.1646C3.00531 29.8489 3.02652 29.5156 3.02652 29.165V14.7501H4.53979V29.0335Z" fill="white"/>
<path fill-rule="evenodd" clip-rule="evenodd" d="M9.43262 20.8264C9.43262 19.8972 9.58398 19.0423 9.88662 18.2618C10.1892 17.4817 10.6093 16.8064 11.1477 16.2363C11.6856 15.6667 12.333 15.2236 13.0897 14.9079C13.8463 14.5923 14.6699 14.4344 15.5614 14.4344C16.4524 14.4344 17.272 14.5923 18.0205 14.9079C18.7684 15.2236 19.4159 15.6667 19.9625 16.2363C20.5088 16.8064 20.9336 17.4817 21.2362 18.2618C21.5388 19.0423 21.6902 19.8972 21.6902 20.8264C21.6902 21.7561 21.5388 22.611 21.2362 23.3911C20.9336 24.1716 20.5088 24.8469 19.9625 25.4166C19.416 25.9866 18.7685 26.4293 18.0205 26.745C17.272 27.0606 16.4524 27.2184 15.5614 27.2184C14.67 27.2184 13.8463 27.0606 13.0897 26.745C12.3331 26.4293 11.6856 25.9866 11.1477 25.4166C10.6093 24.8469 10.1892 24.1716 9.88662 23.3911C9.58398 22.6109 9.43262 21.756 9.43262 20.8264ZM10.9459 20.8264C10.9459 21.5104 11.0506 22.1548 11.2611 22.7598C11.4711 23.3648 11.7781 23.8909 12.1816 24.3381C12.5852 24.7853 13.0726 25.1404 13.6445 25.4034C14.2159 25.6665 14.8551 25.798 15.5613 25.798C16.2675 25.798 16.9063 25.6665 17.4781 25.4034C18.0496 25.1404 18.5374 24.7853 18.941 24.3381C19.3446 23.8909 19.6511 23.3648 19.8616 22.7598C20.0716 22.1548 20.1768 21.5104 20.1768 20.8264C20.1768 20.1425 20.0716 19.4981 19.8616 18.8931C19.6511 18.2881 19.3446 17.762 18.941 17.3148C18.5374 16.8676 18.0496 16.5125 17.4781 16.2495C16.9063 15.9864 16.2676 15.8549 15.5613 15.8549C14.8551 15.8549 14.2159 15.9864 13.6445 16.2495C13.0726 16.5125 12.5852 16.8676 12.1816 17.3148C11.778 17.762 11.4711 18.2881 11.2611 18.8931C11.0507 19.4981 10.9459 20.1425 10.9459 20.8264Z" fill="white"/>
<path fill-rule="evenodd" clip-rule="evenodd" d="M36.1917 23.4832C36.1917 23.7113 36.2 23.9875 36.2169 24.3118C36.2334 24.6365 36.246 24.9653 36.2547 25.2982C36.263 25.6316 36.2756 25.9427 36.2925 26.232C36.309 26.5214 36.3177 26.745 36.3177 26.9028H34.8045C34.7875 26.447 34.7748 26.0084 34.7666 25.5876C34.758 25.1667 34.737 24.895 34.7036 24.7721H34.628C34.3254 25.4388 33.8209 26.013 33.1147 26.4951C32.4085 26.9772 31.5845 27.2185 30.643 27.2185C29.735 27.2185 28.991 27.0693 28.411 26.7713C27.8309 26.4733 27.3769 26.0833 27.0491 25.6007C26.7211 25.1186 26.4981 24.5617 26.3807 23.9304C26.2628 23.2991 26.2041 22.6505 26.2041 21.9839V14.7501H27.7174V21.9049C27.7174 22.3961 27.7592 22.8741 27.8434 23.3385C27.9274 23.8034 28.0743 24.2197 28.2848 24.588C28.4949 24.9563 28.7892 25.2501 29.1676 25.4692C29.5459 25.6887 30.0377 25.798 30.643 25.798C31.1979 25.798 31.7232 25.6973 32.2193 25.4955C32.715 25.2941 33.1438 24.9871 33.5056 24.5749C33.867 24.163 34.1527 23.6456 34.3632 23.0229C34.5732 22.4006 34.6784 21.6682 34.6784 20.8265V14.7501H36.1917V23.4832Z" fill="white"/>
<path fill-rule="evenodd" clip-rule="evenodd" d="M41.6143 18.1697C41.6143 17.942 41.6056 17.6658 41.5891 17.3411C41.5721 17.0168 41.5595 16.688 41.5513 16.3547C41.5426 16.0218 41.53 15.7102 41.5135 15.4209C41.4965 15.1315 41.4883 14.9079 41.4883 14.7501H43.0015C43.018 15.2063 43.0306 15.6445 43.0394 16.0653C43.0477 16.4862 43.0685 16.7583 43.1024 16.8808C43.4889 16.1619 43.9851 15.5746 44.5904 15.1184C45.1958 14.6626 45.9354 14.4344 46.8099 14.4344C46.9613 14.4344 47.1082 14.4476 47.2513 14.4739C47.3941 14.5002 47.5413 14.531 47.6927 14.566L47.5161 16.1179C47.3143 16.0481 47.1209 16.0127 46.9361 16.0127C46.2804 16.0127 45.7128 16.1225 45.2337 16.3415C44.7544 16.561 44.3592 16.8635 44.0483 17.249C43.7371 17.635 43.5061 18.0867 43.3547 18.6037C43.2033 19.1212 43.1277 19.6781 43.1277 20.274V26.9028H41.6144V18.1697H41.6143Z" fill="white"/>
<path fill-rule="evenodd" clip-rule="evenodd" d="M51.2735 18.1697C51.2735 17.942 51.2648 17.6658 51.2483 17.3411C51.2313 17.0168 51.2187 16.688 51.2105 16.3547C51.2018 16.0218 51.1892 15.7102 51.1727 15.4209C51.1557 15.1315 51.1475 14.9079 51.1475 14.7501H52.6607C52.6772 15.2063 52.6898 15.6445 52.6985 16.0653C52.7068 16.4862 52.7276 16.7583 52.7616 16.8808H52.8372C53.1398 16.2145 53.6443 15.6404 54.3505 15.1578C55.0568 14.6757 55.8803 14.4344 56.8221 14.4344C57.73 14.4344 58.4698 14.5836 59.0416 14.8816C59.613 15.18 60.0631 15.5701 60.3909 16.0522C60.7187 16.5347 60.9457 17.0912 61.0719 17.7225C61.1981 18.3538 61.2611 19.0028 61.2611 19.669V26.9028H59.7478V19.748C59.7478 19.2572 59.7057 18.7792 59.6218 18.3144C59.5374 17.8499 59.3905 17.4332 59.1804 17.0649C58.9699 16.6966 58.676 16.4032 58.2977 16.1837C57.9193 15.9646 57.4275 15.8549 56.8222 15.8549C56.2674 15.8549 55.7417 15.956 55.246 16.1574C54.7497 16.3592 54.321 16.6662 53.9596 17.078C53.5979 17.4903 53.3122 18.0078 53.1021 18.63C52.8916 19.2527 52.7869 19.9847 52.7869 20.8264V26.9028H51.2736V18.1697H51.2735Z" fill="white"/>
<path fill-rule="evenodd" clip-rule="evenodd" d="M69.8361 30.6643C69.5501 31.4535 69.1551 32.0757 68.6508 32.532C68.1464 32.9878 67.4738 33.2159 66.6331 33.2159C66.3809 33.2159 66.1286 33.1937 65.8764 33.1501C65.6242 33.1061 65.3803 33.049 65.145 32.9791L65.2963 31.5061C65.5147 31.5759 65.7377 31.6417 65.9646 31.7034C66.1916 31.7646 66.4226 31.7954 66.6583 31.7954C66.927 31.7954 67.1667 31.7338 67.3772 31.6113C67.5872 31.4884 67.768 31.3306 67.9194 31.1378C68.0708 30.9446 68.2007 30.7301 68.3103 30.4934C68.4194 30.2566 68.5159 30.0154 68.6003 29.77L69.6595 26.9554L64.918 14.7501H66.6078L70.4666 24.9826L74.2245 14.7501H75.8386L69.8361 30.6643Z" fill="white"/>
<path fill-rule="evenodd" clip-rule="evenodd" d="M4.33197 0.0953275C4.14638 0.0387202 3.87787 0 3.69771 0C3.46794 0 3.26216 0.0427185 3.10218 0.0953275C1.76744 0.513674 1.06677 1.54586 0.78125 2.71199V3.35203C1.55869 6.13126 2.69891 8.55348 3.71708 11.0856C4.68841 8.6042 5.96473 6.13158 6.66971 3.36087V2.71199C6.41484 1.56512 5.66005 0.485371 4.33197 0.0953275ZM3.69771 4.46598C2.98074 4.46598 2.39956 3.86929 2.39956 3.13318C2.39956 2.39708 2.98074 1.80038 3.69771 1.80038C4.41468 1.80038 4.99586 2.39708 4.99586 3.13318C4.99586 3.86929 4.41468 4.46598 3.69771 4.46598Z" fill="white"/>
</svg>
